lg/rackspace.svg

<svg viewBox="0 0 512 106" version="1.1" xmlns="http://www.w3.org/2000/svg" preserveAspectRatio="xMidYMid" height="1em" width="1em">
  <g>
    <path d="M268.209652,63.5277853 C268.371875,69.0244358 266.253982,74.3435071 262.357951,78.2242838 C257.196358,83.3482395 248.822686,86.1420955 238.754276,86.064715 C232.270338,86.1206164 225.869215,84.6062149 220.097688,81.65087 L222.850485,67.1773008 C228.312871,70.1490777 234.372451,71.8573483 240.582719,72.176237 C245.281872,72.176237 248.447364,70.0080047 248.447364,66.5300948 C248.447364,63.3772355 246.222281,61.1739977 240.538238,58.3933017 C231.547628,53.8976017 227.049296,48.1982934 227.049296,41.4814582 C227.049296,28.26519 238.306312,19.3337995 255.195784,19.3337995 C261.461207,19.0168944 267.689904,20.4637554 273.174109,23.509976 L270.427629,37.9553829 C265.591224,34.9226576 259.992611,33.326666 254.284063,33.3533506 C249.362244,33.3533506 246.155692,35.4152506 246.155692,38.8665774 C246.155692,41.3424892 248.608705,43.5609925 253.801619,46.092176 C260.568199,49.4724391 268.209652,54.4769025 268.209652,63.5283116 L268.209652,63.5277853 Z M151.142215,19.4664517 C127.349037,19.4664517 109.423352,36.8402093 109.423352,59.8795857 C109.423352,75.7910103 119.99605,86.0652414 136.396498,86.0652414 C142.643842,86.2172285 148.853126,85.0513847 154.619862,82.6436561 L157.625593,66.769869 C152.753134,69.4299787 147.297214,70.8406884 141.746016,70.8757713 C135.748503,70.8757713 129.31487,67.4247077 129.31487,57.791629 C129.31487,46.4401249 137.365597,34.6596066 150.879016,34.6596066 C154.530661,34.5502721 158.146023,35.4109514 161.3567,37.1539423 L164.298211,21.7204869 C160.087963,20.1696486 155.628593,19.4056183 151.142215,19.4664517 L151.142215,19.4664517 Z M484.753628,71.2639897 C492.629012,71.2819623 500.353201,69.102188 507.057364,64.9698519 L504.01689,80.9483922 C496.54935,84.3938885 488.411414,86.1427849 480.187654,86.0694526 C462.524115,86.0694526 452.42649,76.2463443 452.42649,59.0960426 C452.450318,49.1447012 455.976482,39.5193366 462.386725,31.9075992 C469.177469,23.8686756 479.188783,19.262289 489.711769,19.3348523 C503.074638,19.3348523 511.988131,27.099219 511.988131,38.6089057 C512.167714,43.478816 510.302716,48.2019578 506.844436,51.6354074 C500.46239,57.85506 484.733099,61.3408658 470.407711,58.5275331 C469.725499,66.6003689 475.801708,71.2645161 484.753628,71.2645161 L484.753628,71.2639897 Z M472.483823,46.2116683 C483.625558,46.3032615 489.892586,45.1762439 492.627486,42.4679275 C495.588473,39.5258905 494.661487,33.2222776 487.363508,33.2222776 C479.149598,33.222804 473.920889,39.9559575 472.483823,46.2121947 L472.483823,46.2116683 Z M442.82131,19.4659253 C419.028132,19.4659253 401.102447,36.8396829 401.102447,59.8790593 C401.102447,75.7904839 411.675146,86.064715 428.075594,86.064715 C434.323022,86.2166998 440.532392,85.0508567 446.29922,82.6431297 L449.304951,66.7693426 C444.432517,69.429514 438.976581,70.8402277 433.425374,70.875245 C427.427598,70.875245 420.993965,67.4244445 420.993965,57.7911026 C420.993965,46.4395985 429.044692,34.6590802 442.558112,34.6590802 C446.209764,34.5496701 449.825145,35.410354 453.035795,37.1534159 L455.977569,21.7199605 C451.766992,20.1693858 447.307379,19.4055384 442.820784,19.4664517 L442.82131,19.4659253 Z M397.97775,48.9328814 L391.131684,84.7621438 L372.999124,84.7621438 L375.35528,72.4299607 C372.910056,80.8784649 365.009685,86.5634283 356.222038,86.1978937 C343.606653,86.1978937 337.905503,74.9990449 337.898923,63.7915105 C337.817253,51.2418409 342.610839,39.1505857 351.269425,30.0659967 C358.187305,23.0848951 367.643205,19.2117842 377.47061,19.3340627 C385.174441,19.364857 390.872959,21.5946778 394.444042,25.9221937 C399.730654,32.3271382 399.296903,41.941793 397.97775,48.9328814 L397.97775,48.9328814 Z M380.520295,40.6905456 C380.298945,36.1727369 377.947263,33.7368314 373.729764,33.7368314 C364.799953,33.7368314 357.064012,49.1494941 357.07085,59.8674785 C357.073224,66.5640474 359.555189,70.7344336 363.873756,70.7344336 C370.780621,70.7344336 376.729705,63.5112037 378.776076,52.9337675 C379.707263,48.9102185 380.290818,44.8140629 380.520295,40.6905456 L380.520295,40.6905456 Z M106.299707,48.9328814 L99.4536416,84.7621438 L81.3208186,84.7621438 L83.6772381,72.4299607 C81.2318155,80.8789008 73.3307789,86.563952 64.5426801,86.1978937 C51.9275582,86.1978937 46.2264074,74.9990449 46.2198275,63.7915105 C46.1381298,51.2418357 50.93172,39.1505706 59.5903301,30.0659967 C66.508308,23.0848804 75.9642935,19.2117733 85.7917778,19.3340627 C93.4953456,19.364857 99.1941275,21.5946778 102.764947,25.9221937 C108.052349,32.3271382 107.61886,41.941793 106.299707,48.9328814 L106.299707,48.9328814 Z M88.8422527,40.6905456 C88.6209025,36.1727369 86.2692206,33.7368314 82.0517218,33.7368314 C73.1221737,33.7368314 65.3862325,49.1494941 65.3928083,59.8674785 C65.3954444,66.5640474 67.8771466,70.7344336 72.1959769,70.7344336 C79.1028417,70.7344336 85.0516626,63.5112037 87.0980338,52.9337675 C88.0292089,48.9102164 88.6127637,44.8140617 88.8422527,40.6905456 L88.8422527,40.6905456 Z M336.631357,43.6983823 C336.631357,59.2644899 329.156509,75.2248695 315.68678,82.4062507 C311.456519,84.756579 306.723758,86.0568178 301.886474,86.1976305 C295.142792,86.1976305 291.362204,83.6764485 289.206868,79.7895275 L284.384538,105.27639 L265.40053,105.27639 L281.517513,20.5131937 L298.238274,20.5131937 L296.283496,30.8026903 C300.520568,23.9572572 307.878329,19.6604968 315.922343,19.3340627 C328.485352,19.3340627 336.631357,28.8558083 336.631357,43.6983823 Z M316.888283,45.1362377 C316.888283,42.1189258 316.175804,34.791206 309.222353,34.791206 C302.151515,34.791206 296.182428,42.8469339 293.868383,55.0654151 C293.076418,59.2429076 290.859757,71.7867026 299.594012,71.7867026 C309.565564,71.7867026 316.888283,57.6321305 316.888283,45.1362377 Z M26.4483282,34.7564638 L29.154539,20.5131937 L12.4345675,20.5131937 L0,85.8928462 L18.9871666,85.8928462 L24.1142806,58.9360177 C27.1373829,43.0403851 36.2569606,36.6793948 49.2355601,38.6433847 L52.9435058,19.1421907 C41.6717444,18.1032502 30.9994802,24.3924959 26.4475386,34.7564638 L26.4483282,34.7564638 Z M178.7323,84.7621438 L185.271739,50.3620513 L198.732519,84.7621438 L219.148592,84.7621438 L205.221687,50.0867453 L230.567739,20.5121409 L209.841617,20.5121409 L185.385441,49.7635371 L194.846125,-1.42108547e-14 L175.991084,-1.42108547e-14 L159.87568,84.7621438 L178.7323,84.7621438 Z" fill="#000000"/>
  </g>
</svg>

<svg viewBox="0 0 512 106" xmlns="http://www.w3.org/2000/svg" preserveAspectRatio="xMidYMid" height="1em" width="1em">
  <path d="M268.21 63.528a19.914 19.914 0 0 1-5.852 14.696c-5.162 5.124-13.535 7.918-23.604 7.84a40.174 40.174 0 0 1-18.656-4.413l2.752-14.474a41.565 41.565 0 0 0 17.733 5c4.699 0 7.864-2.169 7.864-5.647 0-3.153-2.225-5.356-7.909-8.137-8.99-4.495-13.489-10.195-13.489-16.912 0-13.216 11.257-22.147 28.147-22.147a33.536 33.536 0 0 1 17.978 4.176l-2.746 14.445a30.123 30.123 0 0 0-16.144-4.602c-4.922 0-8.128 2.062-8.128 5.514 0 2.475 2.453 4.694 7.646 7.225 6.766 3.38 14.408 8.385 14.408 17.436ZM151.142 19.466c-23.793 0-41.719 17.374-41.719 40.414 0 15.911 10.573 26.185 26.973 26.185a44.49 44.49 0 0 0 18.224-3.421l3.006-15.874a33.582 33.582 0 0 1-15.88 4.106c-5.997 0-12.431-3.451-12.431-13.084 0-11.352 8.05-23.132 21.564-23.132 3.652-.11 7.267.751 10.478 2.494l2.941-15.434a36.625 36.625 0 0 0-13.156-2.254Zm333.612 51.798a42.322 42.322 0 0 0 22.303-6.294l-3.04 15.978a55.693 55.693 0 0 1-23.83 5.121c-17.663 0-27.76-9.823-27.76-26.973a42.365 42.365 0 0 1 9.96-27.188 35.45 35.45 0 0 1 27.325-12.573c13.363 0 22.276 7.764 22.276 19.274a17.45 17.45 0 0 1-5.144 13.026c-6.382 6.22-22.11 9.706-36.436 6.893-.683 8.072 5.394 12.737 14.346 12.737v-.001Zm-12.27-25.052c11.142.091 17.409-1.036 20.143-3.744 2.961-2.942 2.034-9.246-5.263-9.246-8.214 0-13.443 6.734-14.88 12.99ZM442.82 19.466c-23.793 0-41.719 17.374-41.719 40.413 0 15.911 10.573 26.186 26.974 26.186a44.491 44.491 0 0 0 18.223-3.422l3.006-15.874a33.58 33.58 0 0 1-15.88 4.106c-5.997 0-12.431-3.45-12.431-13.084 0-11.351 8.05-23.132 21.564-23.132 3.652-.11 7.267.751 10.478 2.494l2.942-15.433a36.634 36.634 0 0 0-13.157-2.254Zm-44.843 29.467-6.846 35.83h-18.133l2.356-12.333a19.092 19.092 0 0 1-19.133 13.768c-12.615 0-18.316-11.199-18.323-22.406a48.426 48.426 0 0 1 13.37-33.726 36.252 36.252 0 0 1 26.202-10.732c7.703.03 13.402 2.26 16.973 6.588 5.287 6.405 4.853 16.02 3.534 23.01ZM380.52 40.69c-.221-4.518-2.573-6.954-6.79-6.954-8.93 0-16.666 15.412-16.66 26.13.003 6.697 2.485 10.867 6.804 10.867 6.907 0 12.856-7.223 14.902-17.8a72.057 72.057 0 0 0 1.744-12.243ZM106.3 48.933l-6.846 35.83H81.32l2.356-12.333a19.093 19.093 0 0 1-19.134 13.768c-12.615 0-18.317-11.199-18.323-22.406a48.425 48.425 0 0 1 13.37-33.726 36.252 36.252 0 0 1 26.202-10.732c7.703.03 13.402 2.26 16.973 6.588 5.287 6.405 4.854 16.02 3.535 23.01ZM88.842 40.69c-.221-4.518-2.573-6.954-6.79-6.954-8.93 0-16.666 15.412-16.66 26.13.003 6.697 2.485 10.867 6.804 10.867 6.907 0 12.856-7.223 14.902-17.8a72.06 72.06 0 0 0 1.744-12.243Zm247.79 3.007c0 15.566-7.475 31.527-20.945 38.708a30.226 30.226 0 0 1-13.8 3.792c-6.744 0-10.525-2.522-12.68-6.408l-4.822 25.486H265.4l16.117-84.763h16.72l-1.955 10.29a24.253 24.253 0 0 1 19.64-11.469c12.562 0 20.708 9.522 20.708 24.364Zm-19.744 1.438c0-3.017-.712-10.345-7.666-10.345-7.07 0-13.04 8.056-15.354 20.274-.792 4.178-3.008 16.722 5.726 16.722 9.972 0 17.294-14.155 17.294-26.65Zm-290.44-10.38 2.707-14.243h-16.72L0 85.893h18.987l5.127-26.957c3.023-15.896 12.143-22.257 25.122-20.293l3.708-19.5a26.302 26.302 0 0 0-26.496 15.613Zm152.284 50.006 6.54-34.4 13.46 34.4h20.417l-13.927-34.675 25.346-29.575h-20.726l-24.457 29.252L194.846 0h-18.855l-16.115 84.762h18.856Z"/>
</svg>
